!!!ONB: MCCC : ILB0162_03 : Extracted Monophonic Melody
!!!COM: Beethoven, Ludwig van
!!!OPR: Piano Sonata No.1
!!!OMV: 3
!!!SCT: Op.2 No.1
!!!ODT: 1793///
**kern
*thru
*Ipiano
*>A
*clefG2
*k[b-e-a-d-]
*f:
*M3/4
*MM118
4a-
=1
4b-
4g
4r
=2
4a-
4f
4f
=3
4e
4f
4g
=4
4b-
4a-
4cc
=5
4dd-
4b-
4r
=6
4cc
4a-
4a-
=7
4g
4a-
4b-
=8
4dd-
4cc
4ee-
=9
4ee-
4ee-
4ee-
=10
2ee-
4ff
=11
2a-
4b-
=12
4a-
4r
8gg
8ff
=13
2a-
4b-
=14
4a-
4r
*>A
*M3/4
4a-
=15
4b-
4g
4r
=16
4a-
4f
4f
=17
4e
4f
4g
=18
4b-
4a-
4cc
=19
4dd-
4b-
4r
=20
4cc
4a-
4a-
=21
4g
4a-
4b-
=22
4dd-
4cc
4ee-
=23
4ee-
4ee-
4ee-
=24
2ee-
4ff
=25
2a-
4b-
=26
4a-
4r
8gg
8ff
=27
2a-
4b-
=28
4a-
4r
*>B
4ee-
=29
4ff-
4dd-
4r
=30
4ee-
4cc
4r
=31
4gg-
4ee-
4r
=32
4ff
4dd-
4r
=33
2b-
4cc
=34
4b-
4r
8gg-
8ff
=35
2b-
4cc
=36
4b-
4r
8dd-
8cc
=37
4b-
4r
8dd-
8cc
=38
4b-
4r
8dd-
8cc
=39
8b-
8cc
8dd-
8cc
8b-
8cc
=40
8b-
8a-
8g
8a-
8g
8f
=41
8e
8f
8g
8f
8a-
8B
=42
4c
4r
4r
=43
4r
4r
4ee
=44
4ff
4aa-
4ccc
=45
4ddd-
4bb-
4bb-
=46
4ccc
4aa-
4aa-
=47
4bb-
4gg
4gg
=48
4aa-
4ff
4ff
=49
2ff
4gg
=50
4ff
4r
8ee-
8dd-
=51
2f
4g
=52
4f
4r
4r
=53
2.c
=54
4F
4r
*>B
4ee-
=55
4ff-
4dd-
4r
=56
4ee-
4cc
4r
=57
4gg-
4ee-
4r
=58
4ff
4dd-
4r
=59
2b-
4cc
=60
4b-
4r
8gg-
8ff
=61
2b-
4cc
=62
4b-
4r
8dd-
8cc
=63
4b-
4r
8dd-
8cc
=64
4b-
4r
8dd-
8cc
=65
8b-
8cc
8dd-
8cc
8b-
8cc
=66
8b-
8a-
8g
8a-
8g
8f
=67
8e
8f
8g
8f
8a-
8B
=68
4c
4r
4r
=69
4r
4r
4ee
=70
4ff
4aa-
4ccc
=71
4ddd-
4bb-
4bb-
=72
4ccc
4aa-
4aa-
=73
4bb-
4gg
4gg
=74
4aa-
4ff
4ff
=75
2ff
4gg
=76
4ff
4r
8ee-
8dd-
=77
2f
4g
=78
4f
4r
4r
=79
2.c
=80
4F
4r
*>C
*k[b-]
4c
=81
8a
8g
8a
8f
8g
8a
=82
8b-
8a
8b-
8g
8a
8b
=83
8cc
8b
8cc
8dd
8cc
8b-
=84
8a
8g
8a
8b-
8a
8f
=85
2.a
=86
2.g
=87
2.g
=88
2f
4cc
=89
8r
8g
8e
8c
8f
8d
=90
4c
4r
*>C
4c
=91
8a
8g
8a
8f
8g
8a
=92
8b-
8a
8b-
8g
8a
8b
=93
8cc
8b
8cc
8dd
8cc
8b-
=94
8a
8g
8a
8b-
8a
8f
=95
2.a
=96
2.g
=97
2.g
=98
2f
4cc
=99
8r
8g
8e
8c
8f
8d
=100
4c
4r
*>D
4c
=101
8e
8d
8e
8c
8d
8e
=102
8f
8e
8f
8d
8e
8f
=103
8g
8f#
8g
8e
8f
8g
=104
8a
8f
8a
8cc
8ff
8aa
=105
2.ccc
=106
2.bb
=107
4bb-
8r
8g
8a
8b-
=108
8cc
8b-
8cc
8a
8b-
8cc
=109
8dd
8cc
8dd
8ee
8ff
8gg
=110
8aa
8gg
8aa
8ff
8gg
8aa
=111
8bb-
8aa
8gg
8aa
8gg
8ff
=112
8ee
8ff
8ee
8dd
8cc
8dd
=113
2.cc
=114
2.b
=115
2.b-
=116
8a
8g
8a
8f
8g
8a
=117
8b-
8a
8b-
8g
8a
8b
=118
8cc
8b
8cc
8dd
8cc
8b-
=119
8a
8g
8a
8b-
8a
8f
=120
4a
4cc
4ff
=121
4dd
4g
4f
=122
4e
4g
4cc
=123
4f
4r
*>D
4c
=124
8e
8d
8e
8c
8d
8e
=125
8f
8e
8f
8d
8e
8f
=126
8g
8f#
8g
8e
8f
8g
=127
8a
8f
8a
8cc
8ff
8aa
=128
2.ccc
=129
2.bb
=130
4bb-
8r
8g
8a
8b-
=131
8cc
8b-
8cc
8a
8b-
8cc
=132
8dd
8cc
8dd
8ee
8ff
8gg
=133
8aa
8gg
8aa
8ff
8gg
8aa
=134
8bb-
8aa
8gg
8aa
8gg
8ff
=135
8ee
8ff
8ee
8dd
8cc
8dd
=136
2.cc
=137
2.b
=138
2.b-
=139
8a
8g
8a
8f
8g
8a
=140
8b-
8a
8b-
8g
8a
8b
=141
8cc
8b
8cc
8dd
8cc
8b-
=142
8a
8g
8a
8b-
8a
8f
=143
4a
4cc
4ff
=144
4dd
4g
4f
=145
4e
4g
4cc
=146
4f
4r
*>A
*k[b-e-a-d-]
4a-
=147
4b-
4g
4r
=148
4a-
4f
4f
=149
4e
4f
4g
=150
4b-
4a-
4cc
=151
4dd-
4b-
4r
=152
4cc
4a-
4a-
=153
4g
4a-
4b-
=154
4dd-
4cc
4ee-
=155
4ee-
4ee-
4ee-
=156
2ee-
4ff
=157
2a-
4b-
=158
4a-
4r
8gg
8ff
=159
2a-
4b-
=160
4a-
4r
*>B
4ee-
=161
4ff-
4dd-
4r
=162
4ee-
4cc
4r
=163
4gg-
4ee-
4r
=164
4ff
4dd-
4r
=165
2b-
4cc
=166
4b-
4r
8gg-
8ff
=167
2b-
4cc
=168
4b-
4r
8dd-
8cc
=169
4b-
4r
8dd-
8cc
=170
4b-
4r
8dd-
8cc
=171
8b-
8cc
8dd-
8cc
8b-
8cc
=172
8b-
8a-
8g
8a-
8g
8f
=173
8e
8f
8g
8f
8a-
8B
=174
4c
4r
4r
=175
4r
4r
4ee
=176
4ff
4aa-
4ccc
=177
4ddd-
4bb-
4bb-
=178
4ccc
4aa-
4aa-
=179
4bb-
4gg
4gg
=180
4aa-
4ff
4ff
=181
2ff
4gg
=182
4ff
4r
8ee-
8dd-
=183
2f
4g
=184
4f
4r
4r
=185
2.c
=186
4F
4r
==
*-
